X:215
T: Bayue guihua biandi kai
N: C0343
O: China, Anhui, Jinzhai
S: III, 552]
N: +++BEREITS CODIERT Version aber aus SICHUAN, bitte vergleichen! +++
N: Pinyin-Text der ersten Strophe vorhanden!
R: Xiaodiao, Shidiao, Baduanjing. Geming lishi minge]
M: 2/4
L: 1/16
K: D
d3BA4 | B3AB4 | F3EF2A2 | B2A2B4
A3Bd4 | B3AF4 | F2EFA2FE | D8
F2FAB2Bd | A3FA4
F2FAB2Bd | A3FA4
A3Bd4 | B3AF4 | F2EFA2FE | D8
A2ABA2F2 | EFEDE4
A2BdB2AF | EFEDE4
A2ABd4 | B2BAF4 | F2EFA2FE | D8

